X: 39111
T: Sweeper's Tune, The
R: waltz
M: 3/4
K: Bminor
f2 fB df|a2 fd fd|e2 ed cB|AF Ac de|
fe dB df|a2 fd fd|e2 ed cB|B2:|
fd A2 df|ed c2 dc|Bc dc de|de f2 ed|
f2 fA df|ed c2 dc|B2 Bf ed|B2:|

